X: 21
T: The Frost Bitten Finger
H: 1/23/05
M: 4/4
L: 1/8
R: Hornpipe
K: Gmaj
(3DEF || GBAG EFGD | GBAG E2 DE | GBAG EFGB | cGBG A2 G2 :|
g2 gdgd Bd | g2 gabc' ba | g2 gdgd Bd | cGBG A2 G2 :|
